X: 1
T: Mariposa
C: Jeremiah McLane
R: reel
Z: 2021 John Chambers <jc:trillian.mit.edu>
S: Fiddle Hell 2021 handout
S: Tunes 'N Stuff with Audrey Knuth
S: https://drive.google.com/drive/folders/1yXGhj24P9IU-sNyqHq_582DajPWJPEqj 2021-5-31
M: 4/4
L: 1/8
K: A
|: "A"e3(e dc)B(A | "F#m"cB)AB "D"F3(E |\
[1 F2)A(F "A/C#"EF)AB | "E"c2B2- B2cd :|\
[2 F2AF "E"EFAC | "A"B,2A,2- A,4 :|
[|        "D"F2(AF) EFA(B | c2)BA "F#m"F3(E | "D"F2)AF EFAB | "E"c2B2- B2-
[1 B2 | "F#m"F2(AF) EFA(B | c2)BA "D"F3(E | F2)AF "E"EFAC | "A"B,2A,2- A,4 :|
[2 cd |   "A"e3(e  dc)B(A | "F#m"cB)AB "D"F3(E | F2)AF "E"EFAC | "A"B,2A,2- A,4 |]
